X:1
T:I Wish You Would Marry Me Now (Hempson version)
M:4/4
L:1/8
S:
Z:
K:Gmin
DG GA B2 Bd | cB AG FG AF | GD D/2D/2D B2 Bd | cAfA G/2G/2G G2:|
gfdg fdgd|fdcf AFcA|gfdg fdgd|fcfA G/2G/2G G2|
gfdg fdgd|fdcf AFcA|BGcA dBgd|fdfA G/2G/2G G2||
@@/ABC@@


@@ABC@@
